Yaru++/mimetypes/16/libreoffice-oasis-master-document.svg

<svg id="svg10" enable-background="new" height="16" width="16" xmlns="http://www.w3.org/2000/svg">
  <g id="g8" fill="#808080" transform="translate(-112 -180)">
    <path id="path2" d="m123.28105 180.00525c-.27821.0752-.37465.49932-.15625.68727l3.1875 3.18646c.21982.23021.69212.0371.6875-.28116v-3.21769c-.0122-.20318-.20269-.37897-.40625-.37488h-3.1875c-.0413-.007-.0837-.007-.125 0z"/>
    <path id="path4" d="m113.84375 180.00525c-.4813.0874-.85238.53322-.84375.99967v13.99541c.00006.52341.51276.99962 1.0625.99967h11.875c.54975-.00005 1.06245-.47626 1.0625-.99967v-7.50033c.006-.26397-.1196-.61972-.31245-.80945l-6.40625-6.40414c-.19927-.18364-.47275-.28728-.75-.28116h-5.46875c-.0654-.006-.15331-.006-.21875 0zm.40625 1.24475h5.25l6.25 6.25v7.25h-11.5z"/>
    <path id="rect15019" d="m4 6.4863281v3.0136719h3v-3h1v3h3v-3.0136719zm0 4.0136719v2.986328h3v-2.986328zm4 0v2.986328h3v-2.986328z" transform="matrix(.99999999886 0 0 .99999999886 111.9999991139 179.99999882332)"/>
  </g>
</svg>

<?xml version="1.0" encoding="UTF-8" standalone="no"?>
<svg
   xmlns:dc="http://purl.org/dc/elements/1.1/"
   xmlns:cc="http://creativecommons.org/ns#"
   xmlns:rdf="http://www.w3.org/1999/02/22-rdf-syntax-ns#"
   xmlns:svg="http://www.w3.org/2000/svg"
   xmlns="http://www.w3.org/2000/svg"
   xmlns:xlink="http://www.w3.org/1999/xlink"
   xmlns:sodipodi="http://sodipodi.sourceforge.net/DTD/sodipodi-0.dtd"
   xmlns:inkscape="http://www.inkscape.org/namespaces/inkscape"
   style="enable-background:new"
   width="16"
   height="16"
   version="1.1"
   id="svg10"
   sodipodi:docname="libreoffice-oasis-master-document.svg"
   inkscape:version="0.92.4 (5da689c313, 2019-01-14)">
  <metadata
     id="metadata16">
    <rdf:RDF>
      <cc:Work
         rdf:about="">
        <dc:format>image/svg+xml</dc:format>
        <dc:type
           rdf:resource="http://purl.org/dc/dcmitype/StillImage" />
        <dc:title></dc:title>
      </cc:Work>
    </rdf:RDF>
  </metadata>
  <defs
     id="defs14">
    <linearGradient
       xlink:href="#linearGradient9364"
       gradientUnits="userSpaceOnUse"
       gradientTransform="matrix(1.74992,0,0,1.49998,3002.52,-245.193)"
       y2="-578.638"
       y1="-581.638"
       x2="230"
       x1="230"
       id="linearGradient2820" />
    <linearGradient
       id="linearGradient9364">
      <stop
         id="stop3"
         offset="0"
         style="stop-color:rgb(99, 187, 238)" />
      <stop
         id="stop5"
         offset="1"
         style="stop-color:rgb(170, 220, 247)" />
    </linearGradient>
    <linearGradient
       xlink:href="#linearGradient10755"
       gradientUnits="userSpaceOnUse"
       y2="1099.8199"
       y1="1103.578"
       x2="441.388"
       x1="445.69501"
       id="linearGradient2822" />
    <linearGradient
       id="linearGradient10755">
      <stop
         id="stop9"
         offset="0"
         style="stop-color:rgb(233, 185, 19)" />
      <stop
         id="stop11"
         offset="1"
         style="stop-color:rgb(255, 255, 0)" />
    </linearGradient>
    <linearGradient
       xlink:href="#linearGradient10292-98"
       gradientUnits="userSpaceOnUse"
       gradientTransform="matrix(1.74999,0,0,1.6513,2787.25,-3053.92)"
       y2="1178"
       y1="1173"
       x2="345"
       x1="345"
       id="linearGradient2824" />
    <linearGradient
       id="linearGradient10292-98">
      <stop
         id="stop15"
         offset="0"
         style="stop-color:rgb(146, 226, 133)" />
      <stop
         id="stop17"
         offset="1"
         style="stop-color:rgb(24, 163, 3)" />
    </linearGradient>
    <linearGradient
       xlink:href="#linearGradient18896"
       gradientUnits="userSpaceOnUse"
       gradientTransform="matrix(-0.8819462,0,0,0.52916666,3028.0694,856.97746)"
       y2="-1109.0129"
       y1="-1109.0129"
       x2="3381.8811"
       x1="3375.7881"
       id="linearGradient2688" />
    <linearGradient
       id="linearGradient18896">
      <stop
         id="stop21"
         offset="0"
         style="stop-color:rgb(3, 105, 163)" />
      <stop
         id="stop23"
         offset="1"
         style="stop-color:rgb(2, 63, 98);stop-opacity:0" />
    </linearGradient>
    <linearGradient
       xlink:href="#linearGradient18896"
       gradientUnits="userSpaceOnUse"
       gradientTransform="matrix(0.8819462,0,0,0.52916666,-2960.6896,856.97746)"
       y2="-1109.0129"
       y1="-1109.0129"
       x2="3381.8811"
       x1="3375.7639"
       id="linearGradient2674" />
    <linearGradient
       gradientUnits="userSpaceOnUse"
       gradientTransform="matrix(0.26458333,0,0,0.26458333,-6.5263354,221.63997)"
       y2="284"
       y1="28"
       x2="96"
       x1="208"
       id="linearGradient1144">
      <stop
         id="stop27"
         offset="0"
         style="stop-color:#f2f2f2" />
      <stop
         id="stop29"
         offset="1"
         style="stop-color:#f9f9f9" />
    </linearGradient>
    <linearGradient
       gradientUnits="userSpaceOnUse"
       gradientTransform="matrix(0,-0.11988932,-0.11988589,0,67.016455,292.5483)"
       y2="119.093"
       y1="401.58401"
       x2="-35.310001"
       x1="529.65503"
       id="linearGradient4226">
      <stop
         id="stop32"
         offset="0"
         style="stop-color:rgb(102, 102, 102)" />
      <stop
         id="stop34"
         offset="1"
         style="stop-color:rgb(51, 51, 51)" />
    </linearGradient>
    <linearGradient
       gradientUnits="userSpaceOnUse"
       y2="488"
       y1="88"
       x2="488"
       x1="88"
       id="linearGradient4358">
      <stop
         id="stop37"
         offset="0"
         style="stop-color:#000000;stop-opacity:.58823532" />
      <stop
         id="stop39"
         offset=".88"
         style="stop-color:#000000;stop-opacity:0" />
      <stop
         id="stop41"
         offset="1"
         style="stop-color:#000000" />
    </linearGradient>
    <filter
       style="color-interpolation-filters:sRGB"
       y="-0.0099999998"
       x="-0.0099999998"
       height="1.022"
       width="1.026"
       id="filter4346">
      <feGaussianBlur
         id="feGaussianBlur44"
         stdDeviation="2.12" />
    </filter>
    <clipPath
       id="clipPath983"
       clipPathUnits="userSpaceOnUse">
      <path
         style="color:#000000;display:inline;overflow:visible;visibility:visible;opacity:1;fill:#46a926;fill-opacity:1;fill-rule:nonzero;stroke:none;stroke-width:2;stroke-miterlimit:4;stroke-dasharray:none;stroke-opacity:1;marker:none;enable-background:accumulate"
         d="m 325.09646,237 c -2.80769,0 -3.10979,0.28839 -3.09603,3.10176 V 244 v 3.89824 c -0.0138,2.81337 0.28834,3.10176 3.09603,3.10176 h 5.8075 C 333.71166,251 334,250.71165 334,247.89824 V 244 240.10176 C 334,237.28836 333.71165,237 330.90396,237 Z"
         id="path985"
         inkscape:connector-curvature="0"
         sodipodi:nodetypes="scccssscsss" />
    </clipPath>
  </defs>
  <sodipodi:namedview
     pagecolor="#ffffff"
     bordercolor="#666666"
     borderopacity="1"
     objecttolerance="10"
     gridtolerance="10"
     guidetolerance="10"
     inkscape:pageopacity="0"
     inkscape:pageshadow="2"
     inkscape:window-width="1920"
     inkscape:window-height="1016"
     id="namedview12"
     showgrid="false"
     inkscape:zoom="14.75"
     inkscape:cx="8"
     inkscape:cy="8"
     inkscape:window-x="0"
     inkscape:window-y="27"
     inkscape:window-maximized="1"
     inkscape:current-layer="g920" />
  <g
     transform="translate(-112,-180)"
     id="g8">
    <path
       d="m 123.28105,180.00525 c -0.27821,0.0752 -0.37465,0.49932 -0.15625,0.68727 l 3.1875,3.18646 c 0.21982,0.23021 0.69212,0.0371 0.6875,-0.28116 l 0,-3.21769 c -0.0122,-0.20318 -0.20269,-0.37897 -0.40625,-0.37488 l -3.1875,0 c -0.0413,-0.007 -0.0837,-0.007 -0.125,0 z"
       style="fill:#808080"
       id="path2" />
    <path
       d="m 113.84375,180.00525 c -0.4813,0.0874 -0.85238,0.53322 -0.84375,0.99967 v 13.99541 c 6e-5,0.52341 0.51276,0.99962 1.0625,0.99967 h 11.875 c 0.54975,-5e-5 1.06245,-0.47626 1.0625,-0.99967 V 187.5 c 0.006,-0.26397 -0.1196,-0.61972 -0.31245,-0.80945 l -6.40625,-6.40414 c -0.19927,-0.18364 -0.47275,-0.28728 -0.75,-0.28116 h -5.46875 c -0.0654,-0.006 -0.15331,-0.006 -0.21875,0 z M 114.25,181.25 h 5.25 l 6.25,6.25 v 7.25 h -11.5 z"
       style="fill:#808080"
       id="path4" />
    <g
       id="g920"
       transform="matrix(3.7797136,0,0,3.7797136,93.626868,180.88136)">
      <path
         style="display:inline;overflow:visible;visibility:visible;fill:#808080;fill-opacity:1;fill-rule:nonzero;stroke:none;stroke-width:0.93699998;marker:none;enable-background:new"
         d="M 4 6.4863281 L 4 9.5 L 7 9.5 L 7 6.5 L 8 6.5 L 8 9.5 L 11 9.5 L 11 6.4863281 L 4 6.4863281 z M 4 10.5 L 4 13.486328 L 7 13.486328 L 7 10.5 L 4 10.5 z M 8 10.5 L 8 13.486328 L 11 13.486328 L 11 10.5 L 8 10.5 z "
         transform="matrix(0.26457031,0,0,0.26457031,4.8609852,-0.23318169)"
         id="rect15019" />
    </g>
  </g>
</svg>
